X: 1044
T: Young Dan Tucker
B: jims roots
M:2/4
L:1/16
Q: 1/4=100
K:G
V:1 
e2f2 | "G"g2g2 dBdg | e2d2 d2ef | g2fg a2ga | "D"b2a2 a2ef || "G"g2g2 dBdg |
e2d2 d2ef | g2b2 "D"agef | "G"g6z2 :||:[B4b][B4b] | ageg d2ef | g2fg "D"a2ga |
"G"b2a2 "D"a4 || "G"[B4b][B4b] | ageg d2ef | g2b2 "D"agef | "G"g6 z2 :|
% abcbook-tune_id 6298c297a578b95a29627df8


% abcbook-boost 0
% abcbook-tablature 
% abcbook-transpose 
% abcbook-lastupdated 1654178457195
% abcbook-soundfonts 
% abcbook-repeats 1


